X:1
T:Title
%%score { ( 1 3 ) | 2 }
L:1/8
M:4/4
K:F
V:1 treble nm="Grand Piano"
V:3 treble 
V:2 bass 
V:1
 z4 z2[Q:1/4=100] F>G | A2 A2 AAcA | [EG]2 [EG]2 F2 A>B | c6 z2 | G6 z2 | A2 A2 AAcA | %6
 [EG]2 [EG]2 F2 A>B | c6 z2 |[M:3/4] F6 |[M:1/4] A>c |[M:4/4] d2 d2 dfed | c2 c2 A2 F>A | %12
 [EG]2 [EG]2 [EG][GB][FA][EG] | A2 B2 c2 A>c | [Fd]2 [Fd]2 [Fd][Ff][Fe][Fd] | c2 c2 A2 F>G | %16
 A6 z2 |[M:3/4] F6 |] %18
V:2
 z4 z2 [F,A,]>[F,B,F] | [F,CF]2 [F,CF]2 [F,CF][F,CF][F,A,F][F,CF] | [C,C]2 [C,C]2 [F,A,]2 z2 | %3
 z2 [F,A,]>[F,A,] [F,A,]2 z2 | z2 [C,C]>[C,C] [C,C]2 [F,A,]>[F,B,F] | %5
 [F,CF]2 [F,CF]2 [F,CF][F,CF][F,A,F][F,CF] | [C,C]2 [C,B,]2 [F,A,]2 z2 | %7
 z2 [F,A,]>[F,A,] [F,A,]2 [C,B,]>[C,B,] |[M:3/4] [F,A,]6 |[M:1/4][K:treble] [F,CF]>[F,A,F] | %10
[M:4/4] [B,F]2 [B,F]2 [B,F][B,DF][B,CF][B,F] | [F,A,F]2 [F,A,F]2 [F,CF]2 [F,A,C]>[F,CF] | %12
 [C,C]2 [C,C]2 [C,C][C,C][C,C][C,C] | [F,CF]2 [G,CE]2 [A,CF]2 [F,CF]>[F,A,F] | %14
 [B,,B,]2 [B,,B,]2 [B,,B,][B,,D][B,,C][B,,B,] | [F,A,F]2 [F,A,F]2 [F,CF]2 z2 | %16
 z2 [F,C]>[F,C] [F,C]2 [C,C]>[C,B,] |[M:3/4] [F,A,]6 |] %18
V:3
 x8 | x8 | x8 | z2 F>F F2 A>F | z2 E>E E2 F>G | x8 | x8 | z2 F>F F2 [EG]>[EA] |[M:3/4] x6 | %9
[M:1/4] x2 |[M:4/4] x8 | x8 | x8 | x8 | x8 | x8 | z2 F>F F2 [EG]>[EG] |[M:3/4] x6 |] %18

